X:27
T:Volley Voe,The. RHu.027
T:Oats,Peas and Beans,aka. RHu.027
T:Voulez Vous Danser?,aka. RHu.027
S:R.Hughes MS,1823,Whitchurch,Shrops.
A:Whitchurch, Shropshire
Z:Neil Brookes 2006
M:6/8
L:1/8
Q:3/8=120
R:Jig
K:C
G|e2ee2e|dcdc2z|B2cd2B|c2de2c|!
e2ee2e|dcd cde|f2ed2c|BABc3:|!
d2dB2G|cded3|d2dB2G|cded2z|!
g2gf2f|e2ed2d|c2cB2B|AG”D.C.”AG3|]

